X: 15421
T: Glen Caladh Castle
R: march
M: 
K: Dmajor
M:2/4
L: 1/16
|:A>d|f2a>f d3c|B<dg>B A2d>c|B2e>f g>Be>d|c3e e2A>d|
f2a>f d2d>c|B<dc<e A2d>c|B2G>d c<ag>e|d4d2:|
|:f>g|a>fd>f a2e>f|g>ec<e g2a>g|f>dA>d f<ag>f|e>dc>d e2f>g|
a>gf>e f<ad>c|B<dg>B A2d>c|B2G>d c<ag>e|d4d2:|
|:a>f|d2A>a f2d>f|A>df>d a>fe>d|c2A>g e2A>B|A>Bc>d e>fg>e|
d2A>a f2d>f|A>dd<f f<ad>c|B2G>d c<ag>e|d4d2:|
|:f>g|a>fd<f A>dd<f|A>Bd>e f2e>f|g>ec<e A>ec<e|g>Ac<e g2f>g|
a>fd<f A>dd<f|A>Bd>e f>ed>c|B2G>d c<ag>e|d4d2:|

